X: 191
M: C
L: 1/8
K: D
V: 1
|: A | d<fce ~B>AFd | A<Fd>B A<FDd | e<fd<f | B<dA<F | E>DE<A D2 D :|
V: 2 clef=bass middle=d
z | d2d2 d2d2 | c2A2 A2G2 | d2d2 e2d2 | A2A2 d2d :|
|: z | f2a2 g2d2 | d2d2 f2d2 | c2d2 g2f2 | a2A2 d2d :|


